64x64/apps/gtk-redshift.svg

<svg height="64" width="64" xmlns="http://www.w3.org/2000/svg"><path d="m32 6c-9.388 0-17 7.627-17 17.034-.034 5.102 4.47 9.56 6.538 14.414.922 2.164 2.616 6.552 2.616 6.552h15.692s1.694-4.388 2.616-6.552c2.068-4.854 6.448-9.368 6.538-14.414 0-9.407-7.612-17.033-17-17.033z" fill="#e74c3c"/><path d="m39.846 44-2.616 11.4c-.322 1.404-1.166 2.6-2.614 2.6h-5.23c-1.45 0-2.312-1.192-2.616-2.6l-2.616-11.4z" fill="#4f4f4f"/><path d="m24.668 46 .446 2h13.772l.446-2zm.894 4 .446 2h11.984l.446-2zm.896 4 .312 1.398c.046.212.128.404.198.602h10.06c.072-.198.156-.39.202-.602l.312-1.398zm5.541-48c-9.387 0-16.999 7.628-16.999 17.036-.001.166.017.329.025.494.269-9.173 7.756-16.53 16.975-16.53 9.15 0 16.592 7.252 16.963 16.33.016-.097.034-.194.036-.294 0-9.408-7.612-17.036-17-17.036z" fill="#f4f4f7" opacity=".2"/><path d="m48.97 23.45c-.311 4.877-4.496 9.279-6.51 14-.92 2.161-2.612 6.55-2.612 6.55h-15.696s-1.691-4.389-2.611-6.55c-2-4.69-6.262-9.014-6.518-13.901-.01.162-.023.323-.023.488-.035 5.1 4.472 9.558 6.541 14.412.92 2.162 2.611 6.551 2.611 6.551h15.696s1.693-4.389 2.613-6.55c2.069-4.856 6.449-9.37 6.539-14.414 0-.199-.02-.392-.03-.588z" opacity=".2"/><path d="m24.152 45 2.618 11.398c.304 1.408 1.165 2.602 2.613 2.602h5.234c1.448 0 2.291-1.198 2.613-2.602l2.618-11.398h-.23l-2.388 10.398c-.322 1.404-1.165 2.602-2.613 2.602h-5.234c-1.448 0-2.31-1.194-2.613-2.602l-2.387-10.398h-.23z" opacity=".2"/></svg>

<svg xmlns="http://www.w3.org/2000/svg" width="64" height="64" version="1"><path style="fill:#e74c3c" d="M32 6c-9.388 0-17 7.627-17 17.034-.034 5.102 4.47 9.56 6.538 14.414C22.46 39.612 24.154 44 24.154 44h15.692s1.694-4.388 2.616-6.552C44.53 32.594 48.91 28.08 49 23.034c0-9.407-7.612-17.033-17-17.033z"/><path style="fill:#4f4f4f" d="M39.846 44 37.23 55.4c-.322 1.404-1.166 2.6-2.614 2.6h-5.23c-1.45 0-2.312-1.192-2.616-2.6L24.154 44z"/><path style="opacity:.2;fill:#f4f4f7" d="m24.668 46 .446 2h13.772l.446-2H24.668zm.894 4 .446 2h11.984l.446-2H25.562zm.896 4 .312 1.398c.046.212.128.404.198.602h10.06c.072-.198.156-.39.202-.602L37.542 54H26.458zM31.999 6C22.612 6 15 13.628 15 23.036c-.001.166.017.329.025.494C15.294 14.357 22.781 7 32 7c9.15 0 16.592 7.252 16.963 16.33.016-.097.034-.194.036-.294 0-9.408-7.612-17.036-17-17.036z"/><path style="opacity:.2" d="M48.97 23.45c-.311 4.877-4.496 9.279-6.51 14-.92 2.161-2.612 6.55-2.612 6.55H24.152s-1.691-4.389-2.611-6.55c-2-4.69-6.262-9.014-6.518-13.901-.01.162-.023.323-.023.488-.035 5.1 4.472 9.558 6.541 14.412.92 2.162 2.611 6.551 2.611 6.551h15.696s1.693-4.389 2.613-6.55C44.53 33.594 48.91 29.08 49 24.036c0-.199-.02-.392-.03-.588z"/><path style="opacity:.2" d="m24.152 45 2.618 11.398C27.074 57.806 27.935 59 29.383 59h5.234c1.448 0 2.291-1.198 2.613-2.602L39.848 45h-.23L37.23 55.398C36.908 56.802 36.065 58 34.617 58h-5.234c-1.448 0-2.31-1.194-2.613-2.602L24.383 45h-.23z"/></svg>
